icons/apache/apache-plain-wordmark.svg

<svg xmlns="http://www.w3.org/2000/svg" viewBox="0 0 128 128"><path d="M82.8373 74.4465C82.5535 74.3956 81.4821 74.1211 81.3146 74.0564C80.9216 73.9046 79.5722 73.2134 79.4138 73.0828C79.202 72.9081 79.1748 72.887 78.7889 72.5995C78.4067 72.3146 77.5866 71.4946 77.3019 71.1124C77.1802 70.949 77.0471 70.7747 77.0063 70.725C76.9654 70.6754 76.8969 70.5918 76.854 70.5393C76.764 70.4291 76.0035 69.144 76.0035 69.1021C76.0035 69.0867 75.9244 68.8976 75.8276 68.6819C75.7309 68.4662 75.5937 68.1226 75.5227 67.9184C75.4516 67.7141 75.3648 67.4801 75.3297 67.3984C75.2511 67.2155 75.0366 66.2051 74.9591 65.6528C74.8772 65.0687 74.8797 63.4659 74.9634 62.9415C75.1839 61.5602 75.3579 60.9699 75.8623 59.8911C75.9399 59.7251 76.0035 59.5496 76.0035 59.5012C76.0035 59.4528 76.0369 59.4132 76.0778 59.4132C76.1186 59.4132 76.152 59.37 76.152 59.3173C76.152 59.2645 76.3584 58.9086 76.6107 58.5263C77.0199 57.9063 77.9518 56.8768 78.5662 56.366C79.2019 55.8375 80.4594 55.1487 81.2104 54.9176C81.4311 54.8496 81.6952 54.7652 81.7974 54.7299C82.1748 54.5994 82.9001 54.5045 83.8401 54.4626C85.0517 54.4086 86.3228 54.5668 87.2199 54.8832C87.8908 55.1198 88.5036 55.4028 88.5446 55.4949C88.5582 55.5255 88.6018 55.5506 88.6415 55.5506C88.7981 55.5506 89.6414 56.1895 90.1477 56.6917C90.7335 57.2729 91.1171 57.7819 91.4209 58.3816C91.6113 58.7572 91.6135 58.7755 91.4806 58.8672C91.4046 58.9196 91.3074 58.9887 91.2646 59.0207C91.2217 59.0527 91.0996 59.1291 90.9931 59.1904C90.8866 59.2516 90.6455 59.3971 90.4572 59.5137C90.0737 59.7511 89.9274 59.7337 89.8147 59.4371C89.4997 58.6086 88.055 57.2493 87.0713 56.8558C85.9881 56.4225 85.3312 56.2932 84.2164 56.294C83.0353 56.2952 82.2757 56.4399 81.3315 56.845C81.0091 56.9834 80.321 57.3944 80.1765 57.535C80.1225 57.5875 80.0555 57.6305 80.0276 57.6305C79.9487 57.6305 79.1226 58.4458 78.7592 58.8823C78.3657 59.3549 77.6823 60.5703 77.5208 61.0845C77.4567 61.2888 77.3749 61.5228 77.339 61.6045C77.0234 62.3234 76.8376 64.0649 76.9525 65.2257C77.0311 66.0202 77.1963 66.8522 77.3396 67.1756C77.3758 67.2573 77.4277 67.4077 77.4548 67.5098C77.5745 67.9603 78.2739 69.2636 78.6405 69.7191C79.0065 70.1741 79.6744 70.8765 79.9775 71.1251C80.3247 71.41 81.452 72.1147 81.5621 72.1157C81.5894 72.1157 81.698 72.1612 81.8034 72.2162C81.9089 72.2712 82.2933 72.3963 82.6577 72.4942C83.2146 72.6437 83.4798 72.6706 84.3229 72.6631C85.7336 72.6503 86.6288 72.4069 87.8141 71.7135C88.5908 71.2592 89.6636 70.2103 90.0426 69.5348C90.1855 69.2799 90.3359 69.0709 90.3768 69.0703C90.5343 69.0682 91.9738 69.8514 91.9738 69.9393C91.9738 70.0433 91.5412 70.869 91.4564 70.9267C91.4264 70.9472 91.3633 71.037 91.3163 71.1264C91.1389 71.4633 90.3258 72.2584 89.5597 72.8441C89.1532 73.1549 88.0771 73.7014 87.3313 73.9758C86.3404 74.3405 85.7394 74.4383 84.3601 74.4594C83.6247 74.4707 82.9394 74.4649 82.8373 74.4465V74.4465ZM23.5613 74.3426C23.5613 74.3012 23.5935 74.2093 23.633 74.1384C23.6724 74.0674 23.7745 73.8423 23.8599 73.638C23.9452 73.4337 24.0445 73.1997 24.0805 73.118C24.1164 73.0363 24.3502 72.4848 24.5999 71.8924C24.8496 71.3 25.0842 70.7485 25.1213 70.6668C25.1584 70.585 25.2754 70.3009 25.3812 70.0354C25.4869 69.7698 25.6036 69.4857 25.6404 69.404C25.6772 69.3223 25.7784 69.0883 25.8653 68.884C25.9522 68.6797 26.071 68.4073 26.1293 68.2785C26.1877 68.1498 26.2354 68.0226 26.2354 67.9959C26.2354 67.9538 26.3778 67.6114 26.6075 67.1013C26.6443 67.0196 26.761 66.7354 26.8668 66.4699C26.9726 66.2043 27.0895 65.9202 27.1267 65.8385C27.1639 65.7568 27.2809 65.4727 27.3867 65.2071C27.4925 64.9416 27.6092 64.6574 27.646 64.5757C27.6828 64.494 27.7834 64.26 27.8696 64.0558C27.9557 63.8515 28.0557 63.6175 28.0917 63.5358C28.1277 63.4541 28.3114 63.0195 28.5001 62.5702C28.6887 62.1208 28.873 61.6862 28.9097 61.6045C28.9463 61.5228 29.1134 61.1217 29.2809 60.7131C29.4484 60.3046 29.6153 59.9035 29.6518 59.8218C29.6884 59.74 29.8351 59.3891 29.978 59.0418C30.7786 57.0963 30.962 56.6564 31.1396 56.2563C31.1759 56.1746 31.2927 55.8904 31.3993 55.6249C31.5059 55.3593 31.6579 55 31.7373 54.8264L31.8815 54.5107H32.689H33.4966L33.6627 54.9007C33.8692 55.3858 34.0963 55.9122 34.1834 56.1077C34.4363 56.6754 34.5548 56.9599 34.5548 56.9991C34.5548 57.0406 34.6973 57.377 34.9687 57.976C35.0271 58.1047 35.0748 58.2319 35.0748 58.2586C35.0748 58.3006 35.1897 58.5773 35.4462 59.1532C35.6991 59.721 35.8176 60.0054 35.8176 60.0446C35.8176 60.0695 35.8869 60.2468 35.9715 60.4386C36.0562 60.6305 36.1754 60.9044 36.2365 61.0474C36.2976 61.1904 36.3773 61.3742 36.4135 61.4559C36.4498 61.5376 36.566 61.8218 36.6718 62.0873C36.7776 62.3529 36.894 62.637 36.9305 62.7187C36.967 62.8004 37.2015 63.352 37.4518 63.9443C37.702 64.5367 37.9366 65.0883 37.9731 65.17C38.0095 65.2517 38.0938 65.4522 38.1604 65.6157C38.8434 67.2932 39.1147 67.9527 39.199 68.1412C39.2539 68.2638 39.4364 68.6983 39.6046 69.1069C39.7728 69.5154 39.9404 69.9165 39.977 69.9982C40.0136 70.0799 40.114 70.3139 40.2002 70.5182C40.2863 70.7225 40.3869 70.9565 40.4237 71.0382C40.4605 71.1199 40.5772 71.404 40.683 71.6695C40.7888 71.9351 40.9055 72.2192 40.9424 72.3009C41.3022 73.098 41.7601 74.2227 41.7601 74.3095C41.7601 74.3995 41.5782 74.4179 40.688 74.4179C39.6409 74.4179 39.6147 74.414 39.5649 74.2508C39.5194 74.1014 39.3466 73.6821 39.1595 73.2666C39.1227 73.1849 39.0055 72.9007 38.8989 72.6352C38.7174 72.1826 38.5705 71.8326 38.4157 71.4838C38.3795 71.4021 38.2632 71.118 38.1574 70.8524C38.0517 70.5869 37.935 70.3028 37.8982 70.2211C37.6729 69.7208 37.5261 69.369 37.5261 69.3297C37.5261 69.3048 37.4639 69.1442 37.388 68.9728C37.3121 68.8014 37.2037 68.5525 37.1471 68.4198L37.0441 68.1783H32.6517H28.2593L28.1094 68.5312C28.027 68.7252 27.8682 69.118 27.7564 69.404C27.6446 69.69 27.4907 70.0642 27.4143 70.2356C27.3378 70.4069 27.2753 70.5676 27.2753 70.5925C27.2753 70.6318 27.1285 70.9835 26.9032 71.4838C26.8664 71.5655 26.7497 71.8497 26.6439 72.1152C26.5381 72.3808 26.4205 72.6649 26.3824 72.7466C26.3444 72.8283 26.1925 73.196 26.0449 73.5637C25.8973 73.9314 25.7592 74.274 25.738 74.3251C25.6891 74.443 23.5613 74.4602 23.5613 74.3426V74.3426ZM36.5604 66.5401C36.5604 66.4692 36.4509 66.202 36.1465 65.5302C36.0882 65.4014 36.0404 65.2727 36.0404 65.2442C36.0404 65.2157 35.9919 65.0871 35.9325 64.9584C35.8732 64.8296 35.6385 64.2563 35.4111 63.6844C35.1837 63.1124 34.9666 62.5776 34.9288 62.4959C34.8909 62.4142 34.7063 61.9462 34.5185 61.4559C34.3307 60.9657 34.1474 60.4977 34.111 60.416C34.0747 60.3343 33.9949 60.1504 33.9338 60.0075C33.8727 59.8645 33.7535 59.5905 33.6688 59.3987C33.5842 59.2069 33.5147 59.0231 33.5144 58.9902C33.5144 58.9573 33.4708 58.8468 33.4181 58.7447C33.3653 58.6425 33.2418 58.3417 33.1435 58.0761C33.0452 57.8106 32.9216 57.5098 32.8689 57.4076C32.8161 57.3055 32.7728 57.1801 32.7725 57.1291C32.7713 56.9729 32.6366 57.0259 32.5831 57.2034C32.5554 57.2953 32.4886 57.4708 32.4346 57.5933C32.3806 57.7159 32.1988 58.1504 32.0305 58.559C31.8622 58.9675 31.6273 59.5358 31.5084 59.8218C31.3896 60.1077 30.7586 61.6286 30.1063 63.2015C29.4539 64.7744 28.8672 66.1867 28.8024 66.3399L28.6847 66.6185H32.6225C35.3348 66.6185 36.5604 66.5941 36.5604 66.5401V66.5401ZM43.8399 64.4643V54.5107L47.9811 54.5119C52.3062 54.5132 53.0894 54.553 53.783 54.8115C54.2724 54.9939 55.0311 55.3699 55.1698 55.4988C55.2229 55.5481 55.3778 55.6714 55.5142 55.7727C56.4725 56.4854 57.388 57.9083 57.7373 59.2282C58.0755 60.5061 57.9372 62.246 57.4009 63.4585C56.6312 65.199 55.3357 66.4036 53.7002 66.8995C53.3723 66.9989 52.7202 67.022 49.5781 67.0456L45.8455 67.0736V70.7461V74.4186H44.8427H43.8399V64.465V64.4643ZM52.6554 65.201C54.0256 65.0115 55.1361 63.9675 55.691 62.3473C55.8818 61.7899 55.9253 60.2514 55.7676 59.6331C55.5533 58.793 55.1607 58.0955 54.5776 57.5191C54.2883 57.2331 53.9518 56.949 53.8297 56.8878C53.7077 56.8266 53.5911 56.7585 53.5707 56.7365C53.5503 56.7144 53.3831 56.6316 53.1993 56.5525C52.8872 56.418 52.6326 56.407 49.3553 56.3847L45.8455 56.3609V60.8211V65.2814H48.9599C50.7862 65.2814 52.3147 65.2482 52.6554 65.201V65.201ZM56.8153 74.3622C56.7974 74.3316 56.9109 74.0057 57.0674 73.638C57.224 73.2703 57.6405 72.2675 57.9931 71.4095C58.3456 70.5516 58.6792 69.7494 58.7343 69.6268C58.7895 69.5043 58.9728 69.0697 59.1418 68.6612C59.4376 67.9457 59.5981 67.5653 59.7373 67.2498C59.7734 67.1681 59.9405 66.767 60.1087 66.3585C60.2769 65.9499 60.4587 65.5154 60.5127 65.3928C60.5667 65.2703 60.7831 64.7521 60.9936 64.2415C61.2041 63.7308 61.4731 63.079 61.5914 62.793C61.8435 62.1833 62.6867 60.1858 62.7828 59.9703C62.8193 59.8886 62.9357 59.6045 63.0415 59.3389C63.1473 59.0734 63.2639 58.7893 63.3008 58.7075C63.3375 58.6258 63.4387 58.3918 63.5256 58.1876C63.6125 57.9833 63.7313 57.7108 63.7897 57.5821C63.848 57.4534 63.8957 57.3262 63.8957 57.2995C63.8957 57.2575 64.0106 56.9808 64.2671 56.4048C64.4147 56.0736 64.6266 55.5632 64.7915 55.1421C64.8875 54.8969 64.9967 54.6546 65.0342 54.6035C65.0814 54.5392 65.3481 54.5107 65.9014 54.5107H66.7004L66.7973 54.7521C66.9921 55.2373 67.8453 57.2626 68.0568 57.7419C68.0928 57.8236 68.2594 58.2247 68.4268 58.6333C68.5943 59.0418 68.7621 59.4429 68.7997 59.5246C68.8373 59.6063 69.1212 60.2916 69.4307 61.0474C69.7401 61.8032 70.0234 62.4884 70.0601 62.5702C70.0968 62.6519 70.3006 63.1365 70.5131 63.6472C71.0151 64.8543 71.5369 66.0965 71.6208 66.2842C71.6572 66.3659 71.7576 66.5999 71.8438 66.8041C71.9299 67.0084 72.0305 67.2424 72.0673 67.3241C72.1041 67.4058 72.2214 67.69 72.3279 67.9555C72.5094 68.4081 72.6563 68.7581 72.8111 69.1069C72.8474 69.1886 72.9642 69.4727 73.0707 69.7382C73.1772 70.0038 73.3124 70.3264 73.3711 70.4551C73.4299 70.5839 73.4779 70.7122 73.4779 70.7402C73.4779 70.7683 73.5782 71.0079 73.7008 71.2727C73.8233 71.5375 73.9236 71.7719 73.9236 71.7935C73.9236 71.8151 73.9717 71.9381 74.0304 72.0669C74.0891 72.1956 74.2243 72.5182 74.3308 72.7837C74.4374 73.0493 74.5546 73.3334 74.5914 73.4151C74.8487 73.9865 74.9636 74.2718 74.9636 74.3396C74.9636 74.459 72.9237 74.4451 72.8274 74.3251C72.7864 74.274 72.4607 73.5136 72.1037 72.6352C71.7466 71.7568 71.4105 70.9379 71.3567 70.8153C71.3028 70.6927 71.1716 70.3752 71.0651 70.1096C70.9586 69.8441 70.8414 69.56 70.8046 69.4783C70.7038 69.2546 70.4681 68.6923 70.3606 68.4192L70.2654 68.1772L65.8463 68.1963L61.4272 68.2155L60.9874 69.2926C60.7455 69.8849 60.5154 70.447 60.4761 70.5416C60.4367 70.6362 60.4045 70.7299 60.4045 70.7499C60.4045 70.7817 60.2433 71.1641 60.0324 71.6324C59.9956 71.7141 59.8783 71.9982 59.7718 72.2638C59.6653 72.5293 59.5343 72.8469 59.4807 72.9694C59.4271 73.092 59.2722 73.4681 59.1364 73.8051L58.8897 74.4179H57.8688C57.3072 74.4179 56.8332 74.3929 56.8153 74.3622V74.3622ZM69.7639 66.5791C69.7639 66.5424 69.5081 65.9058 69.2873 65.3928C69.2345 65.2703 69.1128 64.9527 69.0169 64.6872C68.9209 64.4216 68.7992 64.1208 68.7465 64.0186C68.6937 63.9165 68.6504 63.806 68.6501 63.7731C68.6489 63.7214 68.5188 63.403 68.2776 62.8673C68.2408 62.7856 68.1235 62.5014 68.017 62.2359C67.9105 61.9703 67.7795 61.6528 67.726 61.5302C67.6724 61.4076 67.5672 61.1402 67.4921 60.936C67.417 60.7317 67.3127 60.481 67.2603 60.3789C67.2079 60.2767 67.1648 60.1648 67.1645 60.1301C67.1645 60.0954 67.1157 59.9617 67.0567 59.833C66.9977 59.7042 66.8264 59.2814 66.6762 58.8932C66.5259 58.5051 66.345 58.0539 66.2741 57.8905C66.2032 57.727 66.0989 57.4846 66.0422 57.3518C65.9137 57.0505 65.8295 57.0746 65.7029 57.449C65.6485 57.6101 65.5724 57.8087 65.5338 57.8905C65.4953 57.9722 65.3932 58.2061 65.3071 58.4104C65.2209 58.6147 65.1202 58.8487 65.0833 58.9304C65.0229 59.0642 64.2148 60.9958 63.2186 63.3872C63.0144 63.8775 62.8175 64.3455 62.781 64.4272C62.7445 64.5089 62.5782 64.91 62.4114 65.3185C62.2446 65.7271 62.0591 66.1711 61.9991 66.3053C61.9392 66.4394 61.8901 66.5648 61.8901 66.5838C61.8901 66.6029 63.6617 66.6185 65.827 66.6185C67.9923 66.6185 69.7639 66.6007 69.7639 66.5791V66.5791ZM94.6831 74.3273C94.6632 74.275 94.6555 69.8032 94.666 64.39L94.6851 54.5478H95.6507H96.6164L96.6355 58.9489L96.6547 63.3501H102.485H108.316V58.9304V54.5107H109.318H110.321V64.4643V74.4179H109.318H108.316V69.7754V65.1328H102.485H96.6547L96.6355 69.7568L96.6164 74.3808L95.6678 74.4016C94.9501 74.4173 94.7105 74.3993 94.6831 74.3273V74.3273ZM114.704 64.4643V54.5107H121.24H127.777V55.4392V56.3677H122.243H116.709V59.8589V63.3501H121.538H126.366V64.2415V65.1328H121.538H116.709V68.8469V72.5609H122.355H128V73.4894V74.4179H121.352H114.704V64.4643Z M0 88.9345C0.278209 88.8648 0.641828 88.5265 0.707679 88.3122C1.79678 84.7674 3.6242 79.0756 5.97137 72.7775C8.06463 67.1608 10.578 61.0627 13.3555 55.5714C15.0428 52.2355 16.809 49.1123 18.6603 46.4702C19.6248 45.0937 20.591 43.8499 21.6143 42.7685C20.6502 43.8321 19.7576 45.1048 18.836 46.5234C17.0773 49.2304 15.2958 52.4505 13.6556 55.823C10.732 61.8346 8.16463 68.3007 6.38226 73.1692C5.74041 74.9224 5.1919 76.4843 4.77708 77.7209C5.22491 77.8843 5.80454 78.6735 6.14017 79.3252C6.10654 78.5905 5.80454 77.8799 5.19805 77.3194C7.84143 77.4287 10.3853 76.8226 11.571 74.3173C10.8051 75.2355 10.0504 75.1908 9.14348 75.1908C9.84874 74.8655 10.6444 74.5032 11.4355 73.8059C12.2266 73.1086 12.7472 72.3209 13.2809 71.2546C11.8706 72.6109 10.2971 73.4234 7.79242 73.0063C8.77808 72.8417 11.5343 72.1715 14.0135 69.0915C15.726 66.9641 16.7894 64.1616 17.5043 61.9244C17.0368 62.1901 16.2372 62.4062 15.5886 62.4936C17.5246 61.7361 18.4851 60.2026 18.9897 59.1624C18.2748 59.622 17.7186 59.9143 16.6207 60.088C17.5702 59.7359 18.4874 59.0466 19.0746 58.2659C19.6742 57.4687 20.4902 55.5821 20.6965 54.4822C20.2673 54.8403 18.9897 55.2416 18.2416 55.3319C18.8514 55.0595 19.9301 54.6439 21.0034 53.051C22.6641 50.5862 23.9094 47.7931 24.2713 45.8499C24.6155 44.0017 24.3541 42.6371 23.8759 41.6961C23.4892 40.9354 22.5356 40.0037 21.6143 40.0037C20.8961 40.0037 20.1969 40.6187 19.2638 41.5621C18.3307 42.5055 17.7545 43.2047 17.256 43.8321C15.5651 45.9604 13.5203 48.7831 11.5321 51.9715C8.36239 57.0548 5.34027 63.1372 4.13713 69.1624C3.89063 70.3968 3.71684 71.6231 3.6378 72.8442C3.27628 72.2973 2.62101 71.6956 1.54175 71.0537C1.94272 71.5757 3.57861 74.0231 3.57861 75.7638C3.22628 75.8343 2.21022 75.7638 1.28237 75.3718C1.86457 75.9177 2.49415 76.3673 3.23212 76.5589C2.3334 76.6475 1.45809 77.2069 0.512811 77.9318C1.70342 77.4627 2.80686 77.1471 3.7611 77.3408C2.55301 80.6803 0.629876 86.7604 0 88.9345Z" clip-rule="evenodd"/></svg>

<svg xmlns="http://www.w3.org/2000/svg" viewBox="0 0 128 128"><path fill="#CB2533" d="M82.837 74.447a20 20 0 0 1-1.522-.39c-.393-.152-1.743-.844-1.901-.974a12 12 0 0 0-.625-.483c-.382-.285-1.202-1.105-1.487-1.488a16 16 0 0 0-.296-.387c-.04-.05-.11-.133-.152-.186-.09-.11-.85-1.395-.85-1.437 0-.015-.08-.204-.176-.42-.097-.216-.234-.56-.305-.764a11 11 0 0 0-.193-.52c-.079-.182-.293-1.193-.37-1.745-.083-.584-.08-2.187.003-2.712.22-1.38.395-1.971.9-3.05.077-.166.14-.341.14-.39s.034-.088.075-.088.074-.043.074-.096.206-.408.459-.79c.409-.62 1.34-1.65 1.955-2.161.636-.529 1.893-1.217 2.644-1.448.221-.068.485-.153.587-.188.378-.13 1.103-.225 2.043-.267 1.212-.054 2.483.104 3.38.42.67.237 1.284.52 1.325.612.013.03.057.056.096.056.157 0 1 .639 1.507 1.14.586.582.97 1.09 1.273 1.69.19.376.192.395.06.486l-.216.154a4 4 0 0 1-.272.17c-.106.06-.347.206-.536.323-.383.237-.53.22-.642-.077-.315-.828-1.76-2.188-2.744-2.581-1.083-.434-1.74-.563-2.855-.562-1.18.001-1.94.146-2.884.551-.323.138-1.011.55-1.155.69-.055.053-.122.096-.15.096-.078 0-.904.815-1.268 1.251-.393.473-1.077 1.688-1.238 2.203a7 7 0 0 1-.182.52c-.316.718-.501 2.46-.386 3.62.078.795.243 1.627.387 1.95.036.082.088.233.115.335.12.45.819 1.754 1.186 2.21.365.454 1.033 1.156 1.337 1.405.347.285 1.474.99 1.584.99.027 0 .136.046.241.101.106.055.49.18.855.278.557.15.822.177 1.665.17 1.41-.014 2.306-.257 3.491-.95.777-.455 1.85-1.504 2.229-2.18.142-.254.293-.463.334-.464.157-.002 1.597.781 1.597.87 0 .103-.433.929-.518.987a.8.8 0 0 0-.14.2c-.177.336-.99 1.131-1.756 1.717-.407.31-1.483.857-2.229 1.132-.99.365-1.592.462-2.97.483-.736.012-1.422.006-1.524-.013m-59.276-.104c0-.042.032-.134.072-.205s.142-.296.227-.5.184-.438.22-.52.27-.633.52-1.226c.25-.592.484-1.143.521-1.225s.154-.366.26-.632c.106-.265.223-.55.26-.631l.224-.52c.087-.204.206-.477.264-.606.059-.128.106-.255.106-.282 0-.042.143-.385.373-.895.036-.081.153-.366.259-.631.106-.266.223-.55.26-.632s.154-.365.26-.63c.105-.266.222-.55.259-.632s.137-.316.224-.52a132 132 0 0 0 .63-1.486c.189-.45.373-.884.41-.965.036-.082.203-.483.37-.892.168-.408.335-.81.372-.891.036-.082.183-.433.326-.78.8-1.946.984-2.386 1.162-2.786.036-.081.153-.366.26-.631.106-.266.258-.625.337-.799l.145-.315h1.615l.166.39c.206.485.433 1.011.52 1.207.253.567.372.852.372.891 0 .042.142.378.414.977.058.129.106.256.106.283 0 .042.115.318.371.894.253.568.372.852.372.892 0 .024.069.202.154.394.084.191.203.465.264.608.062.143.141.327.178.409.036.082.152.366.258.631.106.266.222.55.259.632.036.081.27.633.52 1.225.251.593.486 1.144.522 1.226s.12.282.187.446c.683 1.677.955 2.337 1.039 2.525.055.123.237.557.406.966a63 63 0 0 0 .595 1.411c.086.204.187.439.224.52s.153.366.259.632c.106.265.223.55.26.63.36.798.817 1.923.817 2.01 0 .09-.182.108-1.072.108-1.047 0-1.073-.004-1.123-.167-.046-.15-.218-.569-.405-.984a27 27 0 0 1-.261-.632 33 33 0 0 0-.483-1.151 28 28 0 0 1-.259-.632c-.105-.265-.222-.55-.259-.63-.225-.501-.372-.853-.372-.892 0-.025-.062-.186-.138-.357l-.24-.553-.104-.242H28.26l-.15.353c-.082.194-.24.587-.353.873-.111.286-.265.66-.342.832a2.4 2.4 0 0 0-.139.356c0 .04-.146.392-.372.892-.037.082-.153.366-.26.631-.105.266-.223.55-.26.632-.039.081-.19.449-.338.817l-.307.761c-.049.118-2.177.135-2.177.018m13-7.803c0-.07-.11-.338-.414-1.01a1.5 1.5 0 0 1-.107-.286c0-.028-.048-.157-.108-.286a45 45 0 0 1-.52-1.274 57 57 0 0 0-.483-1.188 36 36 0 0 1-.41-1.04 47 47 0 0 0-.408-1.04l-.177-.408-.265-.61a2.6 2.6 0 0 1-.155-.408 1 1 0 0 0-.096-.245 9 9 0 0 1-.274-.669 9 9 0 0 0-.275-.668.9.9 0 0 1-.096-.279c-.002-.156-.136-.103-.19.074a4 4 0 0 1-.148.39 67 67 0 0 0-.404.966l-.523 1.263-1.402 3.38c-.652 1.572-1.239 2.985-1.304 3.138l-.117.278h3.938c2.712 0 3.937-.024 3.937-.078m7.279-2.076V54.51h4.141c4.325.002 5.108.042 5.802.3.49.183 1.248.559 1.387.688.053.05.208.172.344.274.958.712 1.874 2.135 2.223 3.455.338 1.278.2 3.018-.336 4.23-.77 1.741-2.065 2.946-3.7 3.442-.329.099-.98.122-4.123.146l-3.733.028v7.345H43.84v-9.954m8.815.737c1.37-.19 2.481-1.233 3.036-2.854.19-.557.234-2.096.077-2.714-.215-.84-.607-1.538-1.19-2.114-.29-.286-.626-.57-.748-.631a1.6 1.6 0 0 1-.26-.151 2.4 2.4 0 0 0-.37-.184c-.313-.135-.567-.146-3.845-.168l-3.51-.024v8.92h3.115c1.826 0 3.355-.033 3.695-.08m4.16 9.161c-.018-.03.096-.356.252-.724.157-.368.574-1.37.926-2.229.353-.857.686-1.66.741-1.782s.239-.557.408-.966c.296-.715.456-1.096.595-1.411.036-.082.203-.483.372-.891.168-.41.35-.844.404-.966.054-.123.27-.64.48-1.151l.598-1.449c.252-.61 1.096-2.607 1.192-2.823.036-.081.153-.365.258-.631s.223-.55.26-.631c.036-.082.138-.316.225-.52.086-.205.205-.477.264-.606.058-.129.106-.256.106-.282 0-.042.115-.32.371-.895.148-.331.36-.842.525-1.263a4 4 0 0 1 .242-.539c.047-.064.314-.092.867-.092h.8l.096.241c.195.485 1.048 2.51 1.26 2.99.036.082.202.483.37.891s.335.81.373.892.321.767.63 1.522c.31.756.593 1.441.63 1.523s.24.566.453 1.077a268 268 0 0 0 1.554 3.677c.037.082.154.366.26.632.182.452.33.802.484 1.15.036.083.153.367.26.632.106.266.241.588.3.717s.107.257.107.285.1.268.223.533c.122.264.223.499.223.52s.048.145.106.274c.06.129.194.451.3.717.107.265.225.55.261.631.258.572.373.857.373.925 0 .119-2.04.105-2.137-.015-.04-.051-.366-.811-.723-1.69s-.694-1.697-.747-1.82c-.054-.122-.185-.44-.292-.705-.106-.266-.224-.55-.26-.632a32 32 0 0 1-.444-1.059l-.096-.242-4.419.02-4.419.019-.44 1.077-.51 1.249c-.04.094-.072.188-.072.208 0 .032-.162.414-.373.882-.036.082-.154.366-.26.632a41 41 0 0 1-.291.705c-.054.123-.209.5-.345.836l-.246.613h-1.021c-.562 0-1.036-.025-1.054-.056m12.949-7.783c0-.037-.256-.673-.477-1.186-.053-.123-.174-.44-.27-.706a8 8 0 0 0-.27-.668 1 1 0 0 1-.097-.246c-.001-.052-.131-.37-.372-.906a26 26 0 0 1-.261-.631 34 34 0 0 0-.291-.706c-.054-.122-.159-.39-.234-.594a7 7 0 0 0-.232-.557 1 1 0 0 1-.096-.249c0-.035-.048-.168-.107-.297a26 26 0 0 1-.38-.94 38 38 0 0 0-.635-1.541c-.128-.301-.213-.277-.34.097a5 5 0 0 1-.168.442c-.039.081-.14.315-.227.52-.086.204-.187.438-.224.52-.06.133-.868 2.065-1.864 4.456-.205.49-.401.959-.438 1.04s-.203.483-.37.891c-.166.41-.352.853-.412.987s-.109.26-.109.279 1.772.034 3.937.034 3.937-.017 3.937-.039m24.92 7.748c-.02-.052-.028-4.524-.018-9.937l.02-9.842h1.93l.02 4.4.019 4.402h11.661v-8.84h2.005v19.908h-2.005v-9.285H96.655l-.02 4.624-.019 4.624-.948.02c-.718.016-.958-.002-.985-.074m20.02-9.863v-9.953h13.073v1.857h-11.068v6.982h9.657v1.782h-9.657v7.429H128v1.857h-13.296zM0 88.934c.278-.07.642-.407.708-.622A286 286 0 0 1 5.97 72.778c2.094-5.617 4.607-11.715 7.384-17.207 1.688-3.335 3.454-6.459 5.305-9.1.965-1.377 1.931-2.621 2.954-3.702-.964 1.063-1.856 2.336-2.778 3.754-1.759 2.707-3.54 5.927-5.18 9.3-2.924 6.012-5.491 12.478-7.274 17.346a182 182 0 0 0-1.605 4.552c.448.163 1.028.953 1.363 1.604a2.87 2.87 0 0 0-.942-2.006c2.643.11 5.187-.496 6.373-3.002-.766.919-1.52.874-2.428.874.706-.326 1.501-.688 2.292-1.385.792-.697 1.312-1.485 1.846-2.551-1.41 1.356-2.984 2.168-5.489 1.751.986-.164 3.742-.835 6.222-3.915 1.712-2.127 2.775-4.93 3.49-7.167-.467.266-1.267.482-1.915.57 1.936-.758 2.896-2.291 3.4-3.332-.714.46-1.27.752-2.368.926a5.66 5.66 0 0 0 2.454-1.822c.6-.797 1.415-2.684 1.622-3.784-.43.358-1.707.76-2.455.85.61-.273 1.688-.688 2.761-2.281 1.661-2.465 2.906-5.258 3.268-7.201.345-1.848.083-3.213-.395-4.154-.387-.76-1.34-1.692-2.262-1.692-.718 0-1.417.615-2.35 1.558a26 26 0 0 0-2.008 2.27 90 90 0 0 0-5.724 8.14c-3.17 5.083-6.192 11.165-7.395 17.19a28 28 0 0 0-.5 3.682c-.36-.547-1.016-1.148-2.095-1.79.4.522 2.037 2.97 2.037 4.71-.353.07-1.369 0-2.297-.392.583.546 1.212.995 1.95 1.187-.899.088-1.774.648-2.72 1.373 1.191-.47 2.295-.785 3.25-.591C2.552 80.68.63 86.76 0 88.935"/></svg>
